X:1717
T:Mug of brown ale, The
O:ireland
R:Jig
N:In O'Neill as Delaney's Drummers
M:6/8
K:AMix
eAA fAA|gfg age|dBA G2A|BAB dBd|\
eAA fAA|gfg age|dBd gdB|ABA A3::
efg a2b|a2b age|def g2f|gag ged|\
efg a2b|a2b age|dBd gdB|ABA A3:|
